source/img/logo-tablet.svg

<svg width="61" height="51" viewBox="0 0 61 51" fill="none" xmlns="http://www.w3.org/2000/svg">
<path d="M51.5819 19.854C50.0969 16.265 47.7053 13.1312 44.6456 10.7649C41.5858 8.39869 37.9646 6.88262 34.143 6.36781C30.3214 5.85301 26.4328 6.35745 22.8646 7.83086C19.2965 9.30427 16.1735 11.6952 13.8068 14.7654C11.4402 17.8355 9.9125 21.4777 9.37609 25.329C8.83968 29.1802 9.31325 33.106 10.7496 36.7151C12.186 40.3242 14.535 43.4906 17.5625 45.8987C20.59 48.3068 24.1903 49.8726 28.0046 50.4399C27.505 48.6238 26.9967 46.6166 26.5488 44.4878C27.8519 45.3405 29.2235 46.0816 30.6492 46.7035C30.6492 46.7035 30.7526 48.5804 30.8904 50.6745C32.4308 50.7013 33.9698 50.5644 35.4818 50.2661C35.4427 50.0477 35.4427 49.8241 35.4818 49.6057C35.7316 47.9808 36.4208 45.0526 36.5586 43.167C37.552 42.2297 38.3948 41.1421 39.0567 39.9434L39.005 40.3257C38.5312 44.0273 37.5406 47.9808 36.9376 49.0757C36.7424 49.4381 36.5021 49.7739 36.2226 50.0749C39.3408 49.3371 42.2626 47.924 44.7855 45.9336C47.3083 43.9433 49.3718 41.4233 50.8329 38.5484C52.2941 35.6735 53.1179 32.5124 53.2472 29.2843C53.3765 26.0563 52.8083 22.8385 51.5819 19.854ZM50.3156 23.1472C49.9366 23.5208 49.1527 23.7728 49.0235 22.6432C48.8942 21.5136 48.8598 20.7229 48.8598 20.7229C48.8598 20.7229 47.1972 17.7425 46.577 17.7078C45.9568 17.673 41.5549 20.7229 40.3919 22.0524C39.3841 23.1733 39.1859 23.0951 39.1859 25.0675C39.1859 26.5534 39.3755 32.1666 39.2721 36.459L32.2514 38.3446C30.0448 38.9834 27.8007 39.4825 25.5323 39.8391L24.6709 34.7733H24.5503L22.3364 23.3297C22.3364 23.3297 19.0543 22.0784 17.8483 21.7396C17.2821 21.4897 16.6568 21.4084 16.0462 21.5054C15.4356 21.6024 14.8653 21.8736 14.4026 22.287C13.9306 22.7039 13.5531 23.2185 13.296 23.7958C13.0388 24.373 12.908 24.9994 12.9124 25.6323C13.0945 26.0362 13.2331 26.4585 13.3258 26.8922C13.3689 27.3093 12.2921 27.2659 11.603 27.2659C10.9138 27.2659 10.8105 26.0146 11.3532 24.5462C11.7766 23.417 12.3013 22.3292 12.921 21.2964C13.387 20.3738 13.9881 19.5273 14.7041 18.7852C14.7041 18.7852 14.8247 18.4898 15.7809 18.5767C16.7371 18.6636 22.0521 18.9503 22.0521 18.9503L22.0952 16.9779C27.8722 16.1733 33.6987 15.7842 39.5305 15.8135C39.5305 16.3436 39.5305 16.8736 39.5305 17.4037C41.7394 16.3869 44.118 15.7974 46.5425 15.6658C46.6723 15.6625 46.8008 15.6917 46.9166 15.7509C47.0323 15.81 47.1317 15.8973 47.2058 16.0047C47.4987 16.3783 49.2819 18.6115 49.4886 18.933C50.0677 19.7677 50.5942 20.6383 51.065 21.5397C50.9037 22.1104 50.6505 22.6505 50.3156 23.1385V23.1472Z" fill="#FDC305"/>
<path d="M48.6363 17.8294C49.0411 18.3508 49.3943 18.8113 49.4977 18.9503C50.0768 19.7851 50.6033 20.6557 51.0741 21.5571C50.9102 22.1091 50.6601 22.6312 50.3333 23.1038C49.9543 23.4774 49.1704 23.7294 49.0411 22.5998C48.9119 21.4702 48.8602 20.7229 48.8602 20.7229C48.8602 20.7229 47.1977 17.7425 46.5775 17.7078C45.9572 17.673 41.5553 20.7229 40.3924 22.0524C39.3845 23.1733 39.1864 23.0951 39.1864 25.0675C39.1864 26.3709 39.3328 30.8458 39.2984 34.8254C40.8576 34.9992 43.149 35.4337 43.8381 36.459C43.8381 36.459 43.5883 30.2202 50.5659 33.4873C50.5659 33.4873 50.8071 24.9806 60.4378 27.1616C57.1639 23.2844 53.1505 20.1107 48.6363 17.8294Z" fill="#F06351"/>
<path d="M39.5654 15.8135C39.6004 10.9987 39.1967 6.1907 38.3594 1.45035C38.3594 1.45035 38.2302 0.320754 37.61 1.24181C37.0982 2.34291 36.7499 3.51402 36.5762 4.71747C32.8938 4.47914 29.1975 4.57802 25.5327 5.0129C24.8264 2.62338 23.6204 1.53724 23.0432 1.82398C22.466 2.11072 22.3971 4.67403 22.3971 4.67403L22.1129 16.9779C27.8956 16.1725 33.7279 15.7834 39.5654 15.8135Z" fill="#F06351"/>
<path d="M39.0651 39.9434C39.1771 39.0136 39.2374 37.7798 39.2718 36.4156L32.2515 38.3011C30.0459 38.9546 27.8019 39.4682 25.5327 39.8391L26.4889 44.1837C26.4889 44.2793 26.4889 44.3748 26.5492 44.4704C27.8522 45.3231 29.2237 46.0642 30.6494 46.6861C32.7328 45.6815 34.7171 44.4799 36.5757 43.0975V43.1497C37.5646 42.217 38.4044 41.1354 39.0651 39.9434Z" fill="#E55645"/>
<path d="M27.5657 13.0938C27.5226 13.0069 28.4271 13.6847 28.7803 13.8932C29.1334 14.1018 29.3057 14.2582 29.3057 14.4059C29.3057 14.5536 29.0817 14.7013 28.7716 14.7013C28.4615 14.7013 27.9792 14.5971 27.9103 14.4754C27.8413 14.3538 28.4271 14.4754 28.72 14.4754H28.9698C28.4394 14.084 27.9667 13.6189 27.5657 13.0938Z" fill="black"/>
<path d="M34.0264 13.1894C34.0264 13.1894 33.165 14.3016 33.0875 14.3538C33.0099 14.4059 32.941 14.6492 33.2511 14.6057C33.6071 14.5521 33.9585 14.4708 34.302 14.3624C34.3968 14.3103 34.3623 14.1887 34.1986 14.206C34.035 14.2234 33.6129 14.2495 33.3373 14.3016L34.0694 13.1981C34.0694 13.1981 34.0953 13.0938 34.0264 13.1894Z" fill="black"/>
<path d="M31.3215 18.4985C31.7208 18.321 32.0508 18.0156 32.2604 17.6296C32.5016 17.0561 32.2604 16.8389 31.8814 16.7607C31.36 16.6647 30.8218 16.7702 30.374 17.0561C30.038 17.3776 30.0811 17.6904 30.374 17.925C30.6649 18.1552 30.9832 18.3478 31.3215 18.4985Z" fill="black"/>
<path d="M31.0113 19.5933C30.9124 19.7904 30.778 19.9672 30.615 20.1147C30.3697 20.3138 30.0681 20.4294 29.7536 20.4449C29.2794 20.4918 28.8052 20.3552 28.4271 20.0625C28.2535 19.9601 28.0989 19.8278 27.9706 19.6715C27.8844 19.5769 27.7785 19.5027 27.6605 19.4543C27.6605 19.4543 28.3065 23.0255 29.8742 23.599C31.4419 24.1725 31.7348 22.9387 31.7779 22.6085C31.8304 21.6196 31.5841 20.6379 31.0715 19.7932C31.0715 19.5325 31.0543 19.7063 31.0113 19.5933Z" fill="#F06351"/>
<path d="M29.5469 20.5839C29.1438 20.5254 28.7566 20.3852 28.4087 20.1716C28.0608 19.9581 27.7594 19.6756 27.5226 19.3413C27.5015 19.3174 27.4897 19.2865 27.4897 19.2544C27.4897 19.2224 27.5015 19.1915 27.5226 19.1676C27.5339 19.156 27.5473 19.1468 27.5621 19.1405C27.5769 19.1343 27.5927 19.131 27.6088 19.131C27.6248 19.131 27.6407 19.1343 27.6555 19.1405C27.6703 19.1468 27.6837 19.156 27.6949 19.1676C27.9081 19.4692 28.1785 19.7252 28.4905 19.9206C28.8025 20.116 29.1499 20.2469 29.5124 20.3058C29.7993 20.2841 30.0769 20.194 30.3225 20.0429C30.5681 19.8919 30.7746 19.6842 30.9251 19.4369L31.0457 19.2718L31.1319 19.463C31.1319 19.463 31.4592 20.1234 31.9932 20.1581C32.5273 20.1929 32.9063 19.7932 33.3973 19.0372C33.4156 19.0096 33.444 18.9904 33.4763 18.9838C33.5086 18.9773 33.5422 18.984 33.5696 19.0025C33.597 19.0209 33.616 19.0496 33.6225 19.0822C33.629 19.1147 33.6223 19.1486 33.604 19.1762C33.0298 20.0278 32.4871 20.4362 31.976 20.4014C31.7785 20.375 31.5893 20.3043 31.4224 20.1946C31.2554 20.0848 31.115 19.9388 31.0113 19.7671C30.8427 20.0045 30.6238 20.201 30.3705 20.3423C30.1172 20.4836 29.8358 20.5661 29.5469 20.5839Z" fill="black"/>
<path d="M31.2353 32.2795C33.0192 32.2795 34.4655 30.8207 34.4655 29.0211C34.4655 27.2215 33.0192 25.7626 31.2353 25.7626C29.4513 25.7626 28.0051 27.2215 28.0051 29.0211C28.0051 30.8207 29.4513 32.2795 31.2353 32.2795Z" fill="#FDC305"/>
<path d="M35.5163 26.3709L32.8201 27.5092L33.8107 22.6172L27.3503 31.0978L30.0465 29.9595L29.0559 34.8602L35.5163 26.3709ZM29.1506 29.6988L32.734 24.998L32.0363 28.4737L33.7591 27.7611L30.1498 32.4707L30.8476 28.995L29.1506 29.6988Z" fill="#111111"/>
<path d="M27.9447 28.4215C28.4776 28.4215 28.9095 27.9858 28.9095 27.4483C28.9095 26.9109 28.4776 26.4751 27.9447 26.4751C27.4119 26.4751 26.98 26.9109 26.98 27.4483C26.98 27.9858 27.4119 28.4215 27.9447 28.4215Z" fill="#111111"/>
<path d="M33.5612 31.9493C33.9371 31.9493 34.2417 31.642 34.2417 31.2629C34.2417 30.8838 33.9371 30.5764 33.5612 30.5764C33.1854 30.5764 32.8807 30.8838 32.8807 31.2629C32.8807 31.642 33.1854 31.9493 33.5612 31.9493Z" fill="#111111"/>
<path d="M34.3882 30.0638C34.5547 30.0638 34.6897 29.9276 34.6897 29.7597C34.6897 29.5917 34.5547 29.4555 34.3882 29.4555C34.2217 29.4555 34.0867 29.5917 34.0867 29.7597C34.0867 29.9276 34.2217 30.0638 34.3882 30.0638Z" fill="#111111"/>
<path d="M39.5224 17.3863C37.9674 18.8002 36.5029 20.3123 35.1377 21.9133C33.7778 23.5028 32.2433 24.9312 30.5635 26.171C30.374 25.7105 29.1594 24.8503 29.1594 24.8503C29.1594 24.8503 26.4545 22.9821 24.6799 21.5136C23.7207 20.7077 22.8169 19.8368 21.9751 18.9069L20.2522 18.8113C22.7392 22.4757 26.3826 25.183 30.5893 26.4925C31.3302 26.3709 33.4148 24.8677 34.974 23.6425C36.8187 22.0601 38.5461 20.3437 40.1426 18.5072C40.5717 17.9928 40.9044 17.4039 41.1246 16.7693C40.1426 17.0995 39.5224 17.3863 39.5224 17.3863Z" fill="#F06351"/>
<path d="M22.3368 23.3297C22.3368 23.3297 19.0548 22.0784 17.8488 21.7396C17.2825 21.4897 16.6572 21.4084 16.0466 21.5054C15.4361 21.6024 14.8658 21.8736 14.4031 22.287C13.931 22.7039 13.5536 23.2185 13.2964 23.7958C13.0393 24.373 12.9084 24.9994 12.9128 25.6323C13.0949 26.0362 13.2335 26.4585 13.3263 26.8922C13.3694 27.3093 12.2926 27.2659 11.6034 27.2659C10.9143 27.2659 10.8109 26.0146 11.3536 24.5462C11.777 23.417 12.3018 22.3292 12.9214 21.2964C8.22664 23.7641 0 29.4642 0 29.4642C2.35316 29.3211 4.71429 29.3909 7.0551 29.6728C11.5776 30.1333 11.3622 33.7306 11.3622 33.7306C12.9529 33.2883 14.574 32.9659 16.2121 32.7661C18.0383 32.6445 18.1675 34.6082 18.1675 34.6082L18.6241 37.9622C19.3173 37.2057 20.0819 36.5189 20.9069 35.9116C21.9703 35.0529 23.3243 34.6476 24.6799 34.782L22.3368 23.3297Z" fill="#F06351"/>
</svg>

<svg width="61" height="51" fill="none" xmlns="http://www.w3.org/2000/svg"><path d="M51.582 19.854a22.231 22.231 0 0 0-6.936-9.09 21.96 21.96 0 0 0-10.503-4.396A21.887 21.887 0 0 0 22.865 7.83a22.083 22.083 0 0 0-9.058 6.934 22.354 22.354 0 0 0-4.43 10.564 22.432 22.432 0 0 0 1.373 11.386 22.238 22.238 0 0 0 6.813 9.184 21.965 21.965 0 0 0 10.442 4.54c-.5-1.815-1.008-3.822-1.456-5.951a27.756 27.756 0 0 0 4.1 2.215s.104 1.877.241 3.971c1.54.027 3.08-.11 4.592-.408a1.874 1.874 0 0 1 0-.66c.25-1.625.939-4.553 1.077-6.439a13.212 13.212 0 0 0 2.498-3.224l-.052.383c-.474 3.701-1.464 7.655-2.067 8.75a4.845 4.845 0 0 1-.715.999 22.006 22.006 0 0 0 8.563-4.141 22.237 22.237 0 0 0 6.047-7.386 22.45 22.45 0 0 0 .749-18.694Zm-1.266 3.293c-.38.374-1.163.626-1.293-.504-.129-1.13-.163-1.92-.163-1.92s-1.663-2.98-2.283-3.015c-.62-.035-5.022 3.015-6.185 4.344-1.008 1.121-1.206 1.043-1.206 3.015 0 1.486.19 7.1.086 11.392l-7.02 1.886a54.724 54.724 0 0 1-6.72 1.494l-.861-5.066h-.12L22.335 23.33s-3.282-1.252-4.488-1.59a3.213 3.213 0 0 0-3.445.547c-.472.417-.85.931-1.107 1.509a4.437 4.437 0 0 0-.384 1.836c.182.404.321.826.414 1.26.043.417-1.034.374-1.723.374-.69 0-.793-1.251-.25-2.72.424-1.129.948-2.217 1.568-3.25a10.312 10.312 0 0 1 1.783-2.51s.12-.296 1.077-.21c.956.088 6.271.374 6.271.374l.043-1.972a121.95 121.95 0 0 1 17.436-1.165v1.59a19.265 19.265 0 0 1 7.011-1.737.778.778 0 0 1 .664.339c.293.373 2.076 2.607 2.283 2.928.579.835 1.105 1.705 1.576 2.607a5.44 5.44 0 0 1-.75 1.599v.008Z" fill="#FDC305"/><path d="M48.636 17.83c.405.52.758.981.862 1.12.579.835 1.105 1.706 1.576 2.607a5.444 5.444 0 0 1-.74 1.547c-.38.373-1.164.625-1.293-.504-.13-1.13-.18-1.877-.18-1.877s-1.663-2.98-2.283-3.015c-.62-.035-5.023 3.015-6.186 4.344-1.008 1.121-1.206 1.043-1.206 3.015 0 1.304.147 5.779.112 9.758 1.56.174 3.851.609 4.54 1.634 0 0-.25-6.239 6.728-2.972 0 0 .241-8.506 9.872-6.325a37.712 37.712 0 0 0-11.802-9.333ZM39.565 15.813A79.248 79.248 0 0 0 38.36 1.45s-.129-1.13-.749-.208a12.47 12.47 0 0 0-1.034 3.475 60.535 60.535 0 0 0-11.043.296c-.707-2.39-1.913-3.476-2.49-3.189-.577.287-.646 2.85-.646 2.85l-.284 12.304a121.956 121.956 0 0 1 17.452-1.165Z" fill="#F06351"/><path d="M39.065 39.943c.112-.93.172-2.163.207-3.527l-7.02 1.885a54.73 54.73 0 0 1-6.72 1.538l.957 4.345c0 .095 0 .19.06.286a27.754 27.754 0 0 0 4.1 2.216 36.478 36.478 0 0 0 5.927-3.589v.053a13.208 13.208 0 0 0 2.49-3.207Z" fill="#E55645"/><path d="M27.566 13.094c-.043-.087.861.59 1.214.8.353.208.526.364.526.512 0 .148-.224.295-.534.295-.31 0-.793-.104-.862-.226-.069-.121.517 0 .81 0h.25a6.99 6.99 0 0 1-1.404-1.381ZM34.026 13.19s-.861 1.112-.939 1.164c-.077.052-.146.295.164.252a6.911 6.911 0 0 0 1.051-.244c.095-.052.06-.173-.103-.156-.164.017-.586.043-.862.096l.732-1.104s.026-.104-.043-.009ZM31.322 18.498c.399-.177.729-.482.938-.868.242-.574 0-.791-.379-.87a2.095 2.095 0 0 0-1.507.296c-.336.322-.293.634 0 .869.29.23.61.423.948.573Z" fill="#000"/><path d="M31.011 19.593a1.78 1.78 0 0 1-.396.522c-.245.199-.547.314-.861.33a1.866 1.866 0 0 1-1.327-.383 1.725 1.725 0 0 1-.456-.39.862.862 0 0 0-.31-.218s.645 3.572 2.213 4.145c1.568.573 1.86-.66 1.904-.99a4.925 4.925 0 0 0-.706-2.816c0-.26-.018-.087-.06-.2Z" fill="#F06351"/><path d="M29.547 20.584a2.998 2.998 0 0 1-2.024-1.243.131.131 0 0 1 0-.173.122.122 0 0 1 .086-.037.121.121 0 0 1 .086.037 2.785 2.785 0 0 0 1.817 1.138 1.806 1.806 0 0 0 1.413-.87l.12-.164.087.191s.327.66.861.695c.534.035.913-.365 1.404-1.12a.123.123 0 0 1 .172-.035.125.125 0 0 1 .035.173c-.574.852-1.117 1.26-1.628 1.225a1.328 1.328 0 0 1-.965-.634 1.954 1.954 0 0 1-1.464.817Z" fill="#000"/><path d="M31.235 32.28c1.784 0 3.23-1.46 3.23-3.259 0-1.8-1.446-3.258-3.23-3.258s-3.23 1.458-3.23 3.258 1.446 3.258 3.23 3.258Z" fill="#FDC305"/><path d="m35.516 26.37-2.696 1.14.99-4.893-6.46 8.48 2.697-1.138-.991 4.901 6.46-8.49ZM29.151 29.7l3.583-4.701-.698 3.476 1.723-.713-3.61 4.71.699-3.476-1.697.704ZM27.945 28.422a.969.969 0 0 0 .965-.974.97.97 0 0 0-.965-.973.97.97 0 0 0-.965.973c0 .538.432.974.965.974ZM33.561 31.95c.376 0 .68-.308.68-.687a.684.684 0 0 0-.68-.687.684.684 0 0 0-.68.687c0 .379.304.686.68.686ZM34.388 30.064a.303.303 0 0 0 .302-.304.303.303 0 0 0-.302-.305.303.303 0 0 0-.301.305c0 .168.135.304.301.304Z" fill="#111"/><path d="M39.522 17.386a49.73 49.73 0 0 0-4.384 4.527 27.555 27.555 0 0 1-4.574 4.258c-.19-.46-1.405-1.32-1.405-1.32s-2.704-1.869-4.48-3.337a27.578 27.578 0 0 1-2.704-2.607l-1.723-.096a19.507 19.507 0 0 0 10.337 7.681c.741-.121 2.826-1.624 4.385-2.85a49.885 49.885 0 0 0 5.169-5.135c.429-.514.761-1.103.982-1.738-.982.33-1.603.617-1.603.617ZM22.337 23.33s-3.282-1.252-4.488-1.59a3.214 3.214 0 0 0-3.446.547c-.472.417-.85.931-1.107 1.509a4.439 4.439 0 0 0-.383 1.836c.182.404.32.826.413 1.26.043.417-1.033.374-1.723.374-.689 0-.792-1.251-.25-2.72.424-1.129.949-2.217 1.568-3.25C8.227 23.764 0 29.464 0 29.464a39.136 39.136 0 0 1 7.055.209c4.523.46 4.307 4.058 4.307 4.058a33.033 33.033 0 0 1 4.85-.965c1.826-.121 1.956 1.842 1.956 1.842l.456 3.354a15.804 15.804 0 0 1 2.283-2.05 5.189 5.189 0 0 1 3.773-1.13L22.337 23.33Z" fill="#F06351"/></svg>
